(Created with emc2b post processor 2023/10/18 17:34)
(tool change to 2 mm Taschen Fraeser)
T1 M06 G43
G17 G90 G21
(Inner)
G00 X-25.5 Y41.1 S7000 M03
Z2
G01 Z-1.55 F50
G02 X-25.5 Y40.1 I0 J-0.5 
G01 X-48.5 Y40.1 
G03 X-51 Y37.6 I0 J-2.5 
G01 X-51 Y2.5 
G03 X-48.5 Y0 I2.5 J0 
G01 X-2.5 Y0 
G03 X0 Y2.5 I0 J2.5 
G01 X0 Y37.6 
G03 X-2.5 Y40.1 I-2.5 J0 
G01 X-25.5 Y40.1 
G02 X-25.5 Y41.1 I0 J0.5 
G01 Z-3.1 
G02 X-25.5 Y40.1 I0 J-0.5 
G01 X-48.5 Y40.1 
G03 X-51 Y37.6 I0 J-2.5 
G01 X-51 Y2.5 
G03 X-48.5 Y0 I2.5 J0 
G01 X-2.5 Y0 
G03 X0 Y2.5 I0 J2.5 
G01 X0 Y37.6 
G03 X-2.5 Y40.1 I-2.5 J0 
G01 X-25.5 Y40.1 
G02 X-25.5 Y41.1 I0 J0.5 
G00 Z5
G90
(Outer)
X-25.5 Y-2 S7000 M03
Z2
G01 Z-2.25 
G02 X-25.5 Y-1 I0 J0.5 
G01 X0 Y-1 
G03 X1 Y0 I0 J1 
G01 X1 Y40 
G03 X0 Y41 I-1 J0 
G01 X-51 Y41 
G03 X-52 Y40 I0 J-1 
G01 X-52 Y0 
G03 X-51 Y-1 I1 J0 
G01 X-25.5 Y-1 
G02 X-25.5 Y-2 I0 J-0.5 
G01 Z-4.5 
G02 X-25.5 Y-1 I0 J0.5 
G01 X0 Y-1 
G03 X1 Y0 I0 J1 
G01 X1 Y40 
G03 X0 Y41 I-1 J0 
G01 X-51 Y41 
G03 X-52 Y40 I0 J-1 
G01 X-52 Y0 
G03 X-51 Y-1 I1 J0 
G01 X-25.5 Y-1 
G02 X-25.5 Y-2 I0 J-0.5 
G00 Z5
G90
(Inner)
X-25.5 Y40.6 S7000 M03
Z2
G01 Z-3.1 
G02 X-25.5 Y39.6 I0 J-0.5 
G01 X-48.5 Y39.6 
G03 X-50.5 Y37.6 I0 J-2 
G01 X-50.5 Y2.5 
G03 X-48.5 Y0.5 I2 J0 
G01 X-2.5 Y0.5 
G03 X-0.5 Y2.5 I0 J2 
G01 X-0.5 Y37.6 
G03 X-2.5 Y39.6 I-2 J0 
G01 X-25.5 Y39.6 
G02 X-25.5 Y40.6 I0 J0.5 
G00 Z5
T0 M06 M02
