(Created with emc2b post processor 2023/10/17 17:25)
(tool change to 2 mm Taschen Fraeser)
T1 M06 G43
G17 G90 G21
(ZeroCoordinateHole)
G00 X0 Y0.01 S7000 M03
Z2
G01 Z-2 F50
G02 X0.01 Y0 I0 J-0.01 
X-0.01 Y0 I-0.01 J0 
X0 Y0.01 I0.01 J0 
G01 Z-4 
G02 X0.01 Y0 I0 J-0.01 
X-0.01 Y0 I-0.01 J0 
X0 Y0.01 I0.01 J0 
G00 Z5
G90
(LED0)
X-8.29 Y-23.9 S7000 M03
Z2
G01 Z-2 F100
G02 X-8.29 Y-23.4 I0 J0.25 
X-7.69 Y-24 I0 J-0.6 
X-8.89 Y-24 I-0.6 J0 
X-8.29 Y-23.4 I0.6 J0 
X-8.29 Y-23.9 I0 J-0.25 
G01 Z-4 
G02 X-8.29 Y-23.4 I0 J0.25 
X-7.69 Y-24 I0 J-0.6 
X-8.89 Y-24 I-0.6 J0 
X-8.29 Y-23.4 I0.6 J0 
X-8.29 Y-23.9 I0 J-0.25 
G00 Z5
G90
(LED1)
X1.8 Y-23.9 S7000 M03
Z2
G01 Z-2 F50
G02 X1.8 Y-23.4 I0 J0.25 
X2.4 Y-24 I0 J-0.6 
X1.2 Y-24 I-0.6 J0 
X1.8 Y-23.4 I0.6 J0 
X1.8 Y-23.9 I0 J-0.25 
G01 Z-4 
G02 X1.8 Y-23.4 I0 J0.25 
X2.4 Y-24 I0 J-0.6 
X1.2 Y-24 I-0.6 J0 
X1.8 Y-23.4 I0.6 J0 
X1.8 Y-23.9 I0 J-0.25 
G00 Z5
G90
(LED2)
X11.94 Y-24.1 S7000 M03
Z2
G01 Z-2 
G02 X11.94 Y-24.6 I0 J-0.25 
X11.34 Y-24 I0 J0.6 
X12.54 Y-24 I0.6 J0 
X11.94 Y-24.6 I-0.6 J0 
X11.94 Y-24.1 I0 J0.25 
G01 Z-4 
G02 X11.94 Y-24.6 I0 J-0.25 
X11.34 Y-24 I0 J0.6 
X12.54 Y-24 I0.6 J0 
X11.94 Y-24.6 I-0.6 J0 
X11.94 Y-24.1 I0 J0.25 
G00 Z5
G90
(ScrewRightBottomInner)
X43 Y-24.1 S7000 M03
Z2
G01 Z-2 
G02 X43 Y-24.6 I0 J-0.25 
X42.4 Y-24 I0 J0.6 
X43.6 Y-24 I0.6 J0 
X43 Y-24.6 I-0.6 J0 
X43 Y-24.1 I0 J0.25 
G01 Z-4 
G02 X43 Y-24.6 I0 J-0.25 
X42.4 Y-24 I0 J0.6 
X43.6 Y-24 I0.6 J0 
X43 Y-24.6 I-0.6 J0 
X43 Y-24.1 I0 J0.25 
G00 Z5
G90
(ScrewRightbottom2)
X43 Y-24.9 S7000 M03
Z2
G01 Z-2.1 
G02 X43 Y-25.9 I0 J-0.5 
X41.1 Y-24 I0 J1.9 
X44.9 Y-24 I1.9 J0 
X43 Y-25.9 I-1.9 J0 
X43 Y-24.9 I0 J0.5 
G00 Z5
G90
(ButtonDown)
X41.808 Y-7.565 S7000 M03
Z2
G01 Z-2 
G02 X41.308 Y-6.699 I-0.25 J0.433 
G01 X42.59 Y-5.959 
X45.154 Y-7.44 
X45.154 Y-10.4 
X42.59 Y-11.881 
X40.026 Y-10.4 
X40.026 Y-7.44 
X41.308 Y-6.699 
G02 X41.808 Y-7.565 I0.25 J-0.433 
G01 Z-4 
G02 X41.308 Y-6.699 I-0.25 J0.433 
G01 X42.59 Y-5.959 
X45.154 Y-7.44 
X45.154 Y-10.4 
X42.59 Y-11.881 
X40.026 Y-10.4 
X40.026 Y-7.44 
X41.308 Y-6.699 
G02 X41.808 Y-7.565 I0.25 J-0.433 
G00 Z5
G90
(ButtonLeft)
X33.735 Y-2.202 S7000 M03
Z2
G01 Z-2 
G02 X32.869 Y-2.702 I-0.433 J-0.25 
G01 X32.129 Y-1.42 
X33.61 Y1.144 
X36.57 Y1.144 
X38.051 Y-1.42 
X36.57 Y-3.984 
X33.61 Y-3.984 
X32.869 Y-2.702 
G02 X33.735 Y-2.202 I0.433 J0.25 
G01 Z-4 
G02 X32.869 Y-2.702 I-0.433 J-0.25 
G01 X32.129 Y-1.42 
X33.61 Y1.144 
X36.57 Y1.144 
X38.051 Y-1.42 
X36.57 Y-3.984 
X33.61 Y-3.984 
X32.869 Y-2.702 
G02 X33.735 Y-2.202 I0.433 J0.25 
G00 Z5
G90
(ButtonRight)
X51.445 Y-2.202 S7000 M03
Z2
G01 Z-2 
G02 X52.311 Y-2.702 I0.433 J-0.25 
G01 X51.57 Y-3.984 
X48.61 Y-3.984 
X47.129 Y-1.42 
X48.61 Y1.144 
X51.57 Y1.144 
X53.051 Y-1.42 
X52.311 Y-2.702 
G02 X51.445 Y-2.202 I-0.433 J0.25 
G01 Z-4 
G02 X52.311 Y-2.702 I0.433 J-0.25 
G01 X51.57 Y-3.984 
X48.61 Y-3.984 
X47.129 Y-1.42 
X48.61 Y1.144 
X51.57 Y1.144 
X53.051 Y-1.42 
X52.311 Y-2.702 
G02 X51.445 Y-2.202 I-0.433 J0.25 
G00 Z5
G90
(ButtonUp)
X41.808 Y4.725 S7000 M03
Z2
G01 Z-2 
G02 X41.308 Y3.859 I-0.25 J-0.433 
G01 X40.026 Y4.6 
X40.026 Y7.56 
X42.59 Y9.041 
X45.154 Y7.56 
X45.154 Y4.6 
X42.59 Y3.119 
X41.308 Y3.859 
G02 X41.808 Y4.725 I0.25 J0.433 
G01 Z-4 
G02 X41.308 Y3.859 I-0.25 J-0.433 
G01 X40.026 Y4.6 
X40.026 Y7.56 
X42.59 Y9.041 
X45.154 Y7.56 
X45.154 Y4.6 
X42.59 Y3.119 
X41.308 Y3.859 
G02 X41.808 Y4.725 I0.25 J0.433 
G00 Z5
G90
(ScrewRightTopInner)
X43 Y23.9 S7000 M03
Z2
G01 Z-2 
G02 X43 Y23.4 I0 J-0.25 
X42.4 Y24 I0 J0.6 
X43.6 Y24 I0.6 J0 
X43 Y23.4 I-0.6 J0 
X43 Y23.9 I0 J0.25 
G01 Z-4 
G02 X43 Y23.4 I0 J-0.25 
X42.4 Y24 I0 J0.6 
X43.6 Y24 I0.6 J0 
X43 Y23.4 I-0.6 J0 
X43 Y23.9 I0 J0.25 
G00 Z5
G90
(ScrewRightTop2)
X43 Y23.1 S7000 M03
Z2
G01 Z-2.1 
G02 X43 Y22.1 I0 J-0.5 
X41.1 Y24 I0 J1.9 
X44.9 Y24 I1.9 J0 
X43 Y22.1 I-1.9 J0 
X43 Y23.1 I0 J0.5 
G00 Z5
G90
(ScrewLeftTopInner)
X-43 Y21.4 S7000 M03
Z2
G01 Z-2 
G02 X-43 Y20.9 I0 J-0.25 
X-43.6 Y21.5 I0 J0.6 
X-42.4 Y21.5 I0.6 J0 
X-43 Y20.9 I-0.6 J0 
X-43 Y21.4 I0 J0.25 
G01 Z-4 
G02 X-43 Y20.9 I0 J-0.25 
X-43.6 Y21.5 I0 J0.6 
X-42.4 Y21.5 I0.6 J0 
X-43 Y20.9 I-0.6 J0 
X-43 Y21.4 I0 J0.25 
G00 Z5
G90
(ScrewLeftTop2)
X-43 Y20.6 S7000 M03
Z2
G01 Z-2.1 
G02 X-43 Y19.6 I0 J-0.5 
X-44.9 Y21.5 I0 J1.9 
X-41.1 Y21.5 I1.9 J0 
X-43 Y19.6 I-1.9 J0 
X-43 Y20.6 I0 J0.5 
G00 Z5
G90
(ScrewLeftBottomInner)
X-43 Y-21.6 S7000 M03
Z2
G01 Z-2 
G02 X-43 Y-22.1 I0 J-0.25 
X-43.6 Y-21.5 I0 J0.6 
X-42.4 Y-21.5 I0.6 J0 
X-43 Y-22.1 I-0.6 J0 
X-43 Y-21.6 I0 J0.25 
G01 Z-4 
G02 X-43 Y-22.1 I0 J-0.25 
X-43.6 Y-21.5 I0 J0.6 
X-42.4 Y-21.5 I0.6 J0 
X-43 Y-22.1 I-0.6 J0 
X-43 Y-21.6 I0 J0.25 
G00 Z5
G90
(ScrewLeftBottom2)
X-43 Y-22.4 S7000 M03
Z2
G01 Z-2.1 
G02 X-43 Y-23.4 I0 J-0.5 
X-44.9 Y-21.5 I0 J1.9 
X-41.1 Y-21.5 I1.9 J0 
X-43 Y-23.4 I-1.9 J0 
X-43 Y-22.4 I0 J0.5 
G00 Z5
G90
(LCD)
X-8.56 Y16.1 S7000 M03
Z2
G01 Z-2 
G02 X-8.56 Y16.6 I0 J0.25 
G01 X14.54 Y16.6 
X14.54 Y-18.6 
X-31.66 Y-18.6 
X-31.66 Y16.6 
X-8.56 Y16.6 
G02 X-8.56 Y16.1 I0 J-0.25 
G01 Z-4 
G02 X-8.56 Y16.6 I0 J0.25 
G01 X14.54 Y16.6 
X14.54 Y-18.6 
X-31.66 Y-18.6 
X-31.66 Y16.6 
X-8.56 Y16.6 
G02 X-8.56 Y16.1 I0 J-0.25 
G00 Z5
T0 M06 M02
