(Created with emc2b post processor 2023/11/14 18:09)
(tool change to 2 mm Taschen Fraeser)
T1 M06 G43
G17 G90 G21
(Zeichnung 12)
G00 X0 Y-0.04 S7000 M03
Z2
G01 Z-1.75 F50
G02 X0 Y-0.05 I0 J-0.005 
X-0.05 Y0 I0 J0.05 
X0.05 Y0 I0.05 J0 
X0 Y-0.05 I-0.05 J0 
X0 Y-0.04 I0 J0.005 
G01 Z-3.5 
G02 X0 Y-0.05 I0 J-0.005 
X-0.05 Y0 I0 J0.05 
X0.05 Y0 I0.05 J0 
X0 Y-0.05 I-0.05 J0 
X0 Y-0.04 I0 J0.005 
G00 Z5
G90
(Zeichnung 3)
X36.35 Y-9.4 S7000 M03
Z2
G01 Z-1.75 
G02 X36.85 Y-9.4 I0.25 J0 
G01 X36.85 Y-12.4 
X30.85 Y-12.4 
X30.85 Y-6.4 
X36.85 Y-6.4 
X36.85 Y-9.4 
G02 X36.35 Y-9.4 I-0.25 J0 
G01 Z-3.5 
G02 X36.85 Y-9.4 I0.25 J0 
G01 X36.85 Y-12.4 
X30.85 Y-12.4 
X30.85 Y-6.4 
X36.85 Y-6.4 
X36.85 Y-9.4 
G02 X36.35 Y-9.4 I-0.25 J0 
G00 Z5
G90
(Zeichnung 4)
X23.35 Y-13.6 S7000 M03
Z2
G01 Z-1.75 
G02 X23.35 Y-14.1 I0 J-0.25 
X21.35 Y-12.1 I0 J2 
X25.35 Y-12.1 I2 J0 
X23.35 Y-14.1 I-2 J0 
X23.35 Y-13.6 I0 J0.25 
G01 Z-3.5 
G02 X23.35 Y-14.1 I0 J-0.25 
X21.35 Y-12.1 I0 J2 
X25.35 Y-12.1 I2 J0 
X23.35 Y-14.1 I-2 J0 
X23.35 Y-13.6 I0 J0.25 
G00 Z5
G90
(Zeichnung 7)
X13.85 Y-13.6 S7000 M03
Z2
G01 Z-1.75 
G02 X13.85 Y-14.1 I0 J-0.25 
X11.85 Y-12.1 I0 J2 
X15.85 Y-12.1 I2 J0 
X13.85 Y-14.1 I-2 J0 
X13.85 Y-13.6 I0 J0.25 
G01 Z-3.5 
G02 X13.85 Y-14.1 I0 J-0.25 
X11.85 Y-12.1 I0 J2 
X15.85 Y-12.1 I2 J0 
X13.85 Y-14.1 I-2 J0 
X13.85 Y-13.6 I0 J0.25 
G00 Z5
G90
(Zeichnung 5)
X4.35 Y-13.6 S7000 M03
Z2
G01 Z-1.75 
G02 X4.35 Y-14.1 I0 J-0.25 
X2.35 Y-12.1 I0 J2 
X6.35 Y-12.1 I2 J0 
X4.35 Y-14.1 I-2 J0 
X4.35 Y-13.6 I0 J0.25 
G01 Z-3.5 
G02 X4.35 Y-14.1 I0 J-0.25 
X2.35 Y-12.1 I0 J2 
X6.35 Y-12.1 I2 J0 
X4.35 Y-14.1 I-2 J0 
X4.35 Y-13.6 I0 J0.25 
G00 Z5
G90
(Zeichnung 6)
X-5.15 Y-13.6 S7000 M03
Z2
G01 Z-1.75 
G02 X-5.15 Y-14.1 I0 J-0.25 
X-7.15 Y-12.1 I0 J2 
X-3.15 Y-12.1 I2 J0 
X-5.15 Y-14.1 I-2 J0 
X-5.15 Y-13.6 I0 J0.25 
G01 Z-3.5 
G02 X-5.15 Y-14.1 I0 J-0.25 
X-7.15 Y-12.1 I0 J2 
X-3.15 Y-12.1 I2 J0 
X-5.15 Y-14.1 I-2 J0 
X-5.15 Y-13.6 I0 J0.25 
G00 Z5
G90
(Zeichnung 8)
X-14.65 Y-13.6 S7000 M03
Z2
G01 Z-1.75 
G02 X-14.65 Y-14.1 I0 J-0.25 
X-16.65 Y-12.1 I0 J2 
X-12.65 Y-12.1 I2 J0 
X-14.65 Y-14.1 I-2 J0 
X-14.65 Y-13.6 I0 J0.25 
G01 Z-3.5 
G02 X-14.65 Y-14.1 I0 J-0.25 
X-16.65 Y-12.1 I0 J2 
X-12.65 Y-12.1 I2 J0 
X-14.65 Y-14.1 I-2 J0 
X-14.65 Y-13.6 I0 J0.25 
G00 Z5
G90
(Zeichnung 9)
X-24.15 Y-13.6 S7000 M03
Z2
G01 Z-1.75 
G02 X-24.15 Y-14.1 I0 J-0.25 
X-26.15 Y-12.1 I0 J2 
X-22.15 Y-12.1 I2 J0 
X-24.15 Y-14.1 I-2 J0 
X-24.15 Y-13.6 I0 J0.25 
G01 Z-3.5 
G02 X-24.15 Y-14.1 I0 J-0.25 
X-26.15 Y-12.1 I0 J2 
X-22.15 Y-12.1 I2 J0 
X-24.15 Y-14.1 I-2 J0 
X-24.15 Y-13.6 I0 J0.25 
G00 Z5
G90
(Zeichnung 10)
X-33.65 Y-13.6 S7000 M03
Z2
G01 Z-1.75 
G02 X-33.65 Y-14.1 I0 J-0.25 
X-35.65 Y-12.1 I0 J2 
X-31.65 Y-12.1 I2 J0 
X-33.65 Y-14.1 I-2 J0 
X-33.65 Y-13.6 I0 J0.25 
G01 Z-3.5 
G02 X-33.65 Y-14.1 I0 J-0.25 
X-35.65 Y-12.1 I0 J2 
X-31.65 Y-12.1 I2 J0 
X-33.65 Y-14.1 I-2 J0 
X-33.65 Y-13.6 I0 J0.25 
G00 Z5
G90
(Zeichnung 11)
X-43.15 Y-13.6 S7000 M03
Z2
G01 Z-1.75 
G02 X-43.15 Y-14.1 I0 J-0.25 
X-45.15 Y-12.1 I0 J2 
X-41.15 Y-12.1 I2 J0 
X-43.15 Y-14.1 I-2 J0 
X-43.15 Y-13.6 I0 J0.25 
G01 Z-3.5 
G02 X-43.15 Y-14.1 I0 J-0.25 
X-45.15 Y-12.1 I0 J2 
X-41.15 Y-12.1 I2 J0 
X-43.15 Y-14.1 I-2 J0 
X-43.15 Y-13.6 I0 J0.25 
G00 Z5
G90
(Zeichnung 2)
X0 Y-21.6 S7000 M03
Z2
G01 Z-1.75 
G02 X0 Y-21.1 I0 J0.25 
G01 X60.15 Y-21.1 
G03 X61.15 Y-20.1 I0 J1 
G01 X61.15 Y20.1 
G03 X60.15 Y21.1 I-1 J0 
G01 X-60.15 Y21.1 
G03 X-61.15 Y20.1 I0 J-1 
G01 X-61.15 Y-20.1 
G03 X-60.15 Y-21.1 I1 J0 
G01 X0 Y-21.1 
G02 X0 Y-21.6 I0 J-0.25 
G01 Z-3.5 
G02 X0 Y-21.1 I0 J0.25 
G01 X60.15 Y-21.1 
G03 X61.15 Y-20.1 I0 J1 
G01 X61.15 Y20.1 
G03 X60.15 Y21.1 I-1 J0 
G01 X-60.15 Y21.1 
G03 X-61.15 Y20.1 I0 J-1 
G01 X-61.15 Y-20.1 
G03 X-60.15 Y-21.1 I1 J0 
G01 X0 Y-21.1 
G02 X0 Y-21.6 I0 J-0.25 
G00 Z5
T0 M06 M02
