(Created with emc2b post processor 2023/11/12 16:07)
(tool change to 2 mm Taschen Fraeser)
T1 M06 G43
G17 G90 G21
(Zeichnung 2)
G00 X3 Y3.95 S7000 M03
Z2
G01 Z-1.6 F50
G02 X2 Y3.95 I-0.5 J0 
G01 X2 Y6.9 
G03 X-1 Y9.9 I-3 J0 
G01 X-6.9 Y9.9 
G03 X-9.9 Y6.9 I0 J-3 
G01 X-9.9 Y1 
G03 X-6.9 Y-2 I3 J0 
G01 X-1 Y-2 
G03 X2 Y1 I0 J3 
G01 X2 Y3.95 
G02 X3 Y3.95 I0.5 J0 
G01 Z-3.2 
G02 X2 Y3.95 I-0.5 J0 
G01 X2 Y6.9 
G03 X-1 Y9.9 I-3 J0 
G01 X-6.9 Y9.9 
G03 X-9.9 Y6.9 I0 J-3 
G01 X-9.9 Y1 
G03 X-6.9 Y-2 I3 J0 
G01 X-1 Y-2 
G03 X2 Y1 I0 J3 
G01 X2 Y3.95 
G02 X3 Y3.95 I0.5 J0 
G00 Z5
G90
(Zeichnung 2)
X2.3 Y3.95 S7000 M03
Z2
G01 Z-1.6 
G02 X1.3 Y3.95 I-0.5 J0 
G01 X1.3 Y6.9 
G03 X-1 Y9.2 I-2.3 J0 
G01 X-6.9 Y9.2 
G03 X-9.2 Y6.9 I0 J-2.3 
G01 X-9.2 Y1 
G03 X-6.9 Y-1.3 I2.3 J0 
G01 X-1 Y-1.3 
G03 X1.3 Y1 I0 J2.3 
G01 X1.3 Y3.95 
G02 X2.3 Y3.95 I0.5 J0 
G01 Z-3.2 
G02 X1.3 Y3.95 I-0.5 J0 
G01 X1.3 Y6.9 
G03 X-1 Y9.2 I-2.3 J0 
G01 X-6.9 Y9.2 
G03 X-9.2 Y6.9 I0 J-2.3 
G01 X-9.2 Y1 
G03 X-6.9 Y-1.3 I2.3 J0 
G01 X-1 Y-1.3 
G03 X1.3 Y1 I0 J2.3 
G01 X1.3 Y3.95 
G02 X2.3 Y3.95 I0.5 J0 
G00 Z5
G90
(Zeichnung 2)
X2 Y3.95 S7000 M03
Z2
G01 Z-3.2 
G02 X1 Y3.95 I-0.5 J0 
G01 X1 Y6.9 
G03 X-1 Y8.9 I-2 J0 
G01 X-6.9 Y8.9 
G03 X-8.9 Y6.9 I0 J-2 
G01 X-8.9 Y1 
G03 X-6.9 Y-1 I2 J0 
G01 X-1 Y-1 
G03 X1 Y1 I0 J2 
G01 X1 Y3.95 
G02 X2 Y3.95 I0.5 J0 
G00 Z5
G90
(Zeichnung 1)
X-11.45 Y3.95 S7000 M03
Z2
G01 Z-2 
G02 X-10.45 Y3.95 I0.5 J0 
G01 X-10.45 Y-1.55 
G03 X-9.45 Y-2.55 I1 J0 
G01 X1.55 Y-2.55 
G03 X2.55 Y-1.55 I0 J1 
G01 X2.55 Y9.45 
G03 X1.55 Y10.45 I-1 J0 
G01 X-9.45 Y10.45 
G03 X-10.45 Y9.45 I0 J-1 
G01 X-10.45 Y3.95 
G02 X-11.45 Y3.95 I-0.5 J0 
G01 Z-4 
G02 X-10.45 Y3.95 I0.5 J0 
G01 X-10.45 Y-1.55 
G03 X-9.45 Y-2.55 I1 J0 
G01 X1.55 Y-2.55 
G03 X2.55 Y-1.55 I0 J1 
G01 X2.55 Y9.45 
G03 X1.55 Y10.45 I-1 J0 
G01 X-9.45 Y10.45 
G03 X-10.45 Y9.45 I0 J-1 
G01 X-10.45 Y3.95 
G02 X-11.45 Y3.95 I-0.5 J0 
G00 Z5
T0 M06 M02
