(Created with emc2b post processor 2023/10/23 17:26)
(tool change to 2 mm Taschen Fraeser)
T1 M06 G43
G17 G90 G21
G00 Z5 S7000 M03
X3.441 Y5.961
Z2
G01 Z-0.975 F50
X6.883 Y0 
X3.441 Y-5.961 
X-3.441 Y-5.961 
X-6.883 Y0 
X-3.441 Y5.961 
X0.283 Y5.961 
X0.283 Y4.82 
X-1.397 Y4.82 
G03 X-3.475 Y3.62 I0.001 J-2.401 
G01 X-4.873 Y1.199 
G03 X-4.873 Y-1.199 I2.071 J-1.199 
G01 X-3.475 Y-3.62 
G03 X-1.397 Y-4.82 I2.079 J1.201 
G01 X1.397 Y-4.82 
G03 X3.475 Y-3.62 I-0.001 J2.401 
G01 X4.873 Y-1.199 
G03 X4.873 Y1.199 I-2.071 J1.199 
G01 X3.475 Y3.62 
G03 X1.397 Y4.82 I-2.098 J-1.234 
G01 X0.283 Y4.82 
X0.283 Y5.961 
X2.84 Y5.961 
X3.441 Y5.961 
G00 Z5
Z1.025
G01 Z-1.95 
X6.883 Y0 
X3.441 Y-5.961 
X-3.441 Y-5.961 
X-6.883 Y0 
X-3.441 Y5.961 
X0.283 Y5.961 
X0.283 Y4.82 
X-1.397 Y4.82 
G03 X-3.475 Y3.62 I0.001 J-2.401 
G01 X-4.873 Y1.199 
G03 X-4.873 Y-1.199 I2.071 J-1.199 
G01 X-3.475 Y-3.62 
G03 X-1.397 Y-4.82 I2.079 J1.201 
G01 X1.397 Y-4.82 
G03 X3.475 Y-3.62 I-0.001 J2.401 
G01 X4.873 Y-1.199 
G03 X4.873 Y1.199 I-2.071 J1.199 
G01 X3.475 Y3.62 
G03 X1.397 Y4.82 I-2.098 J-1.234 
G01 X0.283 Y4.82 
X0.283 Y5.961 
X2.84 Y5.961 
X3.441 Y5.961 
G00 Z5
Z0.05
G01 Z-2.925 
X6.883 Y0 
X3.441 Y-5.961 
X-3.441 Y-5.961 
X-6.883 Y0 
X-3.441 Y5.961 
X0.283 Y5.961 
X0.283 Y4.82 
X-1.397 Y4.82 
G03 X-3.475 Y3.62 I0.001 J-2.401 
G01 X-4.873 Y1.199 
G03 X-4.873 Y-1.199 I2.071 J-1.199 
G01 X-3.475 Y-3.62 
G03 X-1.397 Y-4.82 I2.079 J1.201 
G01 X1.397 Y-4.82 
G03 X3.475 Y-3.62 I-0.001 J2.401 
G01 X4.873 Y-1.199 
G03 X4.873 Y1.199 I-2.071 J1.199 
G01 X3.475 Y3.62 
G03 X1.397 Y4.82 I-2.098 J-1.234 
G01 X0.283 Y4.82 
X0.283 Y5.961 
X2.84 Y5.961 
X3.441 Y5.961 
G00 Z5
Z-0.925
G01 Z-3.9 
X6.883 Y0 
X3.441 Y-5.961 
X-3.441 Y-5.961 
X-6.883 Y0 
X-3.441 Y5.961 
X0.283 Y5.961 
X0.283 Y4.82 
X-1.397 Y4.82 
G03 X-3.475 Y3.62 I0.001 J-2.401 
G01 X-4.873 Y1.199 
G03 X-4.873 Y-1.199 I2.071 J-1.199 
G01 X-3.475 Y-3.62 
G03 X-1.397 Y-4.82 I2.079 J1.201 
G01 X1.397 Y-4.82 
G03 X3.475 Y-3.62 I-0.001 J2.401 
G01 X4.873 Y-1.199 
G03 X4.873 Y1.199 I-2.071 J1.199 
G01 X3.475 Y3.62 
G03 X1.397 Y4.82 I-2.098 J-1.234 
G01 X0.283 Y4.82 
X0.283 Y5.961 
X2.84 Y5.961 
X3.441 Y5.961 
G00 Z5
(Inner)
X0 Y5.171 S7000 M03
Z1
G01 Z-3.9 
G02 X0 Y4.671 I0 J-0.25 
G01 X-1.398 Y4.671 
G03 X-3.346 Y3.546 I0 J-2.25 
G01 X-4.744 Y1.125 
G03 X-4.744 Y-1.125 I1.949 J-1.125 
G01 X-3.346 Y-3.546 
G03 X-1.398 Y-4.671 I1.949 J1.125 
G01 X1.398 Y-4.671 
G03 X3.346 Y-3.546 I0 J2.25 
G01 X4.744 Y-1.125 
G03 X4.744 Y1.125 I-1.949 J1.125 
G01 X3.346 Y3.546 
G03 X1.398 Y4.671 I-1.949 J-1.125 
G01 X0 Y4.671 
G02 X0 Y5.171 I0 J0.25 
G00 Z2
G90
(Inner)
X0 Y5.021 S7000 M03
Z1
G01 Z-3.9 
G02 X0 Y4.521 I0 J-0.25 
G01 X-1.398 Y4.521 
G03 X-3.216 Y3.471 I0 J-2.1 
G01 X-4.614 Y1.05 
G03 X-4.614 Y-1.05 I1.819 J-1.05 
G01 X-3.216 Y-3.471 
G03 X-1.398 Y-4.521 I1.819 J1.05 
G01 X1.398 Y-4.521 
G03 X3.216 Y-3.471 I0 J2.1 
G01 X4.614 Y-1.05 
G03 X4.614 Y1.05 I-1.819 J1.05 
G01 X3.216 Y3.471 
G03 X1.398 Y4.521 I-1.819 J-1.05 
G01 X0 Y4.521 
G02 X0 Y5.021 I0 J0.25 
G00 Z2
G90
(Inner)
X0 Y4.921 S7000 M03
Z1
G01 Z-3.9 
G02 X0 Y4.421 I0 J-0.25 
G01 X-1.398 Y4.421 
G03 X-3.13 Y3.421 I0 J-2 
G01 X-4.527 Y1 
G03 X-4.527 Y-1 I1.732 J-1 
G01 X-3.13 Y-3.421 
G03 X-1.398 Y-4.421 I1.732 J1 
G01 X1.398 Y-4.421 
G03 X3.13 Y-3.421 I0 J2 
G01 X4.527 Y-1 
G03 X4.527 Y1 I-1.732 J1 
G01 X3.13 Y3.421 
G03 X1.398 Y4.421 I-1.732 J-1 
G01 X0 Y4.421 
G02 X0 Y4.921 I0 J0.25 
G00 Z2
G90
Z5 S7000 M03
X3.307 Y5.728
Z-1.9
G01 Z-4.867 
X6.614 Y0 
X3.307 Y-5.728 
X-3.307 Y-5.728 
X-6.614 Y0 
X-3.307 Y5.728 
X-2.5 Y5.728 
X-2.5 Y5.53 
G03 X-3.539 Y4.93 I0.003 J-1.205 
G01 X-6.039 Y0.6 
G03 X-6.039 Y-0.6 I1.041 J-0.6 
G01 X-3.539 Y-4.93 
G03 X-2.5 Y-5.53 I1.04 J0.601 
G01 X2.5 Y-5.53 
G03 X3.539 Y-4.93 I-0.003 J1.205 
G01 X6.039 Y-0.6 
G03 X6.039 Y0.6 I-1.041 J0.6 
G01 X3.539 Y4.93 
G03 X2.5 Y5.53 I-1.04 J-0.601 
G01 X-2.5 Y5.53 
X-2.5 Y5.728 
X3.307 Y5.728 
G00 Z5
Z-2.867
G01 Z-5.833 
X6.614 Y0 
X3.307 Y-5.728 
X-3.307 Y-5.728 
X-6.614 Y0 
X-3.307 Y5.728 
X-2.5 Y5.728 
X-2.5 Y5.53 
G03 X-3.539 Y4.93 I0.003 J-1.205 
G01 X-6.039 Y0.6 
G03 X-6.039 Y-0.6 I1.041 J-0.6 
G01 X-3.539 Y-4.93 
G03 X-2.5 Y-5.53 I1.04 J0.601 
G01 X2.5 Y-5.53 
G03 X3.539 Y-4.93 I-0.003 J1.205 
G01 X6.039 Y-0.6 
G03 X6.039 Y0.6 I-1.041 J0.6 
G01 X3.539 Y4.93 
G03 X2.5 Y5.53 I-1.04 J-0.601 
G01 X-2.5 Y5.53 
X-2.5 Y5.728 
X3.307 Y5.728 
G00 Z5
Z-3.833
G01 Z-6.8 
X6.614 Y0 
X3.307 Y-5.728 
X-3.307 Y-5.728 
X-6.614 Y0 
X-3.307 Y5.728 
X-2.5 Y5.728 
X-2.5 Y5.53 
G03 X-3.539 Y4.93 I0.003 J-1.205 
G01 X-6.039 Y0.6 
G03 X-6.039 Y-0.6 I1.041 J-0.6 
G01 X-3.539 Y-4.93 
G03 X-2.5 Y-5.53 I1.04 J0.601 
G01 X2.5 Y-5.53 
G03 X3.539 Y-4.93 I-0.003 J1.205 
G01 X6.039 Y-0.6 
G03 X6.039 Y0.6 I-1.041 J0.6 
G01 X3.539 Y4.93 
G03 X2.5 Y5.53 I-1.04 J-0.601 
G01 X-2.5 Y5.53 
X-2.5 Y5.728 
X3.307 Y5.728 
G00 Z5
Z-4.8
G01 Z-7.767 
X6.614 Y0 
X3.307 Y-5.728 
X-3.307 Y-5.728 
X-6.614 Y0 
X-3.307 Y5.728 
X-2.5 Y5.728 
X-2.5 Y5.53 
G03 X-3.539 Y4.93 I0.003 J-1.205 
G01 X-6.039 Y0.6 
G03 X-6.039 Y-0.6 I1.041 J-0.6 
G01 X-3.539 Y-4.93 
G03 X-2.5 Y-5.53 I1.04 J0.601 
G01 X2.5 Y-5.53 
G03 X3.539 Y-4.93 I-0.003 J1.205 
G01 X6.039 Y-0.6 
G03 X6.039 Y0.6 I-1.041 J0.6 
G01 X3.539 Y4.93 
G03 X2.5 Y5.53 I-1.04 J-0.601 
G01 X-2.5 Y5.53 
X-2.5 Y5.728 
X3.307 Y5.728 
G00 Z5
Z-5.767
G01 Z-8.733 
X6.614 Y0 
X3.307 Y-5.728 
X-3.307 Y-5.728 
X-6.614 Y0 
X-3.307 Y5.728 
X-2.5 Y5.728 
X-2.5 Y5.53 
G03 X-3.539 Y4.93 I0.003 J-1.205 
G01 X-6.039 Y0.6 
G03 X-6.039 Y-0.6 I1.041 J-0.6 
G01 X-3.539 Y-4.93 
G03 X-2.5 Y-5.53 I1.04 J0.601 
G01 X2.5 Y-5.53 
G03 X3.539 Y-4.93 I-0.003 J1.205 
G01 X6.039 Y-0.6 
G03 X6.039 Y0.6 I-1.041 J0.6 
G01 X3.539 Y4.93 
G03 X2.5 Y5.53 I-1.04 J-0.601 
G01 X-2.5 Y5.53 
X-2.5 Y5.728 
X3.307 Y5.728 
G00 Z5
Z-6.733
G01 Z-9.7 
X6.614 Y0 
X3.307 Y-5.728 
X-3.307 Y-5.728 
X-6.614 Y0 
X-3.307 Y5.728 
X-2.5 Y5.728 
X-2.5 Y5.53 
G03 X-3.539 Y4.93 I0.003 J-1.205 
G01 X-6.039 Y0.6 
G03 X-6.039 Y-0.6 I1.041 J-0.6 
G01 X-3.539 Y-4.93 
G03 X-2.5 Y-5.53 I1.04 J0.601 
G01 X2.5 Y-5.53 
G03 X3.539 Y-4.93 I-0.003 J1.205 
G01 X6.039 Y-0.6 
G03 X6.039 Y0.6 I-1.041 J0.6 
G01 X3.539 Y4.93 
G03 X2.5 Y5.53 I-1.04 J-0.601 
G01 X-2.5 Y5.53 
X-2.5 Y5.728 
X3.307 Y5.728 
G00 Z5
G83 Q1 G99 X4.961 Y2.865 Z-10.5 R2  S7000 M03
G80
G00 X0 Y-5.729 S7000 M03
G83 Q1 G98 X0 Y-5.729 Z-10.5 R2 
G80
G00 X-4.961 Y2.865 S7000 M03
G83 Q1 X-4.961 Y2.865 Z-10.5 R2 
G80
T0 M06 M02
