(Created with emc2b post processor 2023/10/28 17:24)
(tool change to 2 mm Taschen Fraeser)
T1 M06 G43
G17 G90 G21
G00 Z5 S7000 M03
X0.055 Y0.1
Z2
G01 Z-1 F50
X0.113 Y0 
X0.055 Y-0.098 
X-0.055 Y-0.098 
X-0.112 Y0 
X-0.055 Y0.1 
X0.055 Y0.1 
X0.748 Y1.3 
X1.499 Y0 
X0.748 Y-1.299 
X-0.747 Y-1.299 
X-1.499 Y0 
X-0.748 Y1.3 
X0.748 Y1.3 
X1.441 Y2.5 
X2.885 Y0 
X1.441 Y-2.5 
X-1.44 Y-2.499 
X-2.885 Y0 
X-1.441 Y2.5 
X1.441 Y2.5 
X2.218 Y3.842 
G03 X2.347 Y3.332 I0.932 J-0.035 
G01 X4.061 Y0.365 
G03 X4.387 Y0.024 I0.854 J0.49 
G01 X4.437 Y0 
G03 X4.061 Y-0.365 I0.431 J-0.82 
G01 X2.347 Y-3.332 
G03 X2.214 Y-3.785 I0.858 J-0.498 
G01 X2.218 Y-3.842 
G03 X1.713 Y-3.7 I-0.497 J-0.798 
G01 X-1.713 Y-3.7 
G03 X-2.218 Y-3.842 I-0.055 J-0.773 
X-2.347 Y-3.332 I-0.932 J0.035 
G01 X-4.061 Y-0.365 
G03 X-4.387 Y-0.024 I-0.854 J-0.49 
G01 X-4.437 Y0 
G03 X-4.061 Y0.365 I-0.431 J0.82 
G01 X-2.347 Y3.332 
G03 X-2.214 Y3.785 I-0.858 J0.498 
G01 X-2.218 Y3.842 
G03 X-1.713 Y3.7 I0.497 J0.798 
G01 X1.713 Y3.7 
G03 X2.218 Y3.842 I0.055 J0.773 
G00 Z5
(Inner)
X0 Y-0.05 S7000 M03
Z1
G01 Z-2.2 
G02 X0 Y-0.55 I0 J-0.25 
X-0.55 Y0 I0 J0.55 
X0.55 Y0 I0.55 J0 
X0 Y-0.55 I-0.55 J0 
X0 Y-0.05 I0 J0.25 
G00 Z5
T0 M06 M02
