(Created with emc2b post processor 2023/11/08 19:04)
(tool change to 2 mm Taschen Fraeser)
T1 M06 G43
G17 G90 G21
(LeftScrew)
G00 X-12.5 Y9.6 S7000 M03
Z2
G01 Z-2 F50
G02 X-12.5 Y9.1 I0 J-0.25 
X-13 Y9.6 I0 J0.5 
X-12 Y9.6 I0.5 J0 
X-12.5 Y9.1 I-0.5 J0 
X-12.5 Y9.6 I0 J0.25 
G01 Z-4 
G02 X-12.5 Y9.1 I0 J-0.25 
X-13 Y9.6 I0 J0.5 
X-12 Y9.6 I0.5 J0 
X-12.5 Y9.1 I-0.5 J0 
X-12.5 Y9.6 I0 J0.25 
G00 Z5
G90
(RS)
X0 Y13.1 S7000 M03
Z2
G01 Z-2 
G02 X0 Y13.6 I0 J0.25 
G01 X7.25 Y13.6 
G02 X8.703 Y11.729 I0 J-1.5 
G01 X7.234 Y5.976 
G02 X6.75 Y5.6 I-0.484 J0.124 
G01 X-6.75 Y5.6 
G02 X-7.234 Y5.976 I0 J0.5 
G01 X-8.703 Y11.729 
G02 X-7.25 Y13.6 I1.453 J0.371 
G01 X0 Y13.6 
G02 X0 Y13.1 I0 J-0.25 
G01 Z-4 
G02 X0 Y13.6 I0 J0.25 
G01 X7.25 Y13.6 
G02 X8.703 Y11.729 I0 J-1.5 
G01 X7.234 Y5.976 
G02 X6.75 Y5.6 I-0.484 J0.124 
G01 X-6.75 Y5.6 
G02 X-7.234 Y5.976 I0 J0.5 
G01 X-8.703 Y11.729 
G02 X-7.25 Y13.6 I1.453 J0.371 
G01 X0 Y13.6 
G02 X0 Y13.1 I0 J-0.25 
G00 Z5
G90
(RightScrew)
X12.5 Y9.6 S7000 M03
Z2
G01 Z-2 
G02 X12.5 Y9.1 I0 J-0.25 
X12 Y9.6 I0 J0.5 
X13 Y9.6 I0.5 J0 
X12.5 Y9.1 I-0.5 J0 
X12.5 Y9.6 I0 J0.25 
G01 Z-4 
G02 X12.5 Y9.1 I0 J-0.25 
X12 Y9.6 I0 J0.5 
X13 Y9.6 I0.5 J0 
X12.5 Y9.1 I-0.5 J0 
X12.5 Y9.6 I0 J0.25 
G00 Z5
G90
X35.598 Y4.13 S7000 M03
Z2
G01 Z-1.5 
G02 X35.816 Y2.144 I0.089 J-0.995 
G01 X35.598 Y2.13 
X27.797 Y2.13 
G02 X27.585 Y4.114 I-0.09 J0.994 
G01 X27.803 Y4.13 
X35.598 Y4.13 
X35.63 Y5.13 
G02 X35.964 Y1.152 I0.063 J-1.998 
G01 X35.631 Y1.13 
X27.767 Y1.13 
G02 X27.434 Y5.106 I-0.064 J1.997 
G01 X27.768 Y5.13 
X35.63 Y5.13 
X35.665 Y6.13 
G02 X36.106 Y0.16 I0.033 J-2.999 
G01 X35.665 Y0.13 
X27.734 Y0.13 
G02 X27.291 Y6.099 I-0.033 J2.998 
G01 X27.734 Y6.13 
X35.665 Y6.13 
G00 Z5
(UsbInner)
X31.65 Y3.325 S7000 M03
Z0.5
G01 Z-2.75 
G02 X31.65 Y3.825 I0 J0.25 
G01 X34.995 Y3.825 
X34.531 Y2.325 
X28.769 Y2.325 
X28.305 Y3.825 
X31.65 Y3.825 
G02 X31.65 Y3.325 I0 J-0.25 
G01 Z-4 
G02 X31.65 Y3.825 I0 J0.25 
G01 X34.995 Y3.825 
X34.531 Y2.325 
X28.769 Y2.325 
X28.305 Y3.825 
X31.65 Y3.825 
G02 X31.65 Y3.325 I0 J-0.25 
G00 Z5
G90
(Conn8)
X43.15 Y-13.6 S7000 M03
Z2
G01 Z-2 
G02 X43.15 Y-14.1 I0 J-0.25 
X41.15 Y-12.1 I0 J2 
X45.15 Y-12.1 I2 J0 
X43.15 Y-14.1 I-2 J0 
X43.15 Y-13.6 I0 J0.25 
G01 Z-4 
G02 X43.15 Y-14.1 I0 J-0.25 
X41.15 Y-12.1 I0 J2 
X45.15 Y-12.1 I2 J0 
X43.15 Y-14.1 I-2 J0 
X43.15 Y-13.6 I0 J0.25 
G00 Z5
G90
(Conn7)
X33.15 Y-13.6 S7000 M03
Z2
G01 Z-2 
G02 X33.15 Y-14.1 I0 J-0.25 
X31.15 Y-12.1 I0 J2 
X35.15 Y-12.1 I2 J0 
X33.15 Y-14.1 I-2 J0 
X33.15 Y-13.6 I0 J0.25 
G01 Z-4 
G02 X33.15 Y-14.1 I0 J-0.25 
X31.15 Y-12.1 I0 J2 
X35.15 Y-12.1 I2 J0 
X33.15 Y-14.1 I-2 J0 
X33.15 Y-13.6 I0 J0.25 
G00 Z5
G90
(Conn6)
X23.15 Y-13.6 S7000 M03
Z2
G01 Z-2 
G02 X23.15 Y-14.1 I0 J-0.25 
X21.15 Y-12.1 I0 J2 
X25.15 Y-12.1 I2 J0 
X23.15 Y-14.1 I-2 J0 
X23.15 Y-13.6 I0 J0.25 
G01 Z-4 
G02 X23.15 Y-14.1 I0 J-0.25 
X21.15 Y-12.1 I0 J2 
X25.15 Y-12.1 I2 J0 
X23.15 Y-14.1 I-2 J0 
X23.15 Y-13.6 I0 J0.25 
G00 Z5
G90
(Conn5)
X13.15 Y-10.6 S7000 M03
Z2
G01 Z-2 
G02 X13.15 Y-10.1 I0 J0.25 
X15.15 Y-12.1 I0 J-2 
X11.15 Y-12.1 I-2 J0 
X13.15 Y-10.1 I2 J0 
X13.15 Y-10.6 I0 J-0.25 
G01 Z-4 
G02 X13.15 Y-10.1 I0 J0.25 
X15.15 Y-12.1 I0 J-2 
X11.15 Y-12.1 I-2 J0 
X13.15 Y-10.1 I2 J0 
X13.15 Y-10.6 I0 J-0.25 
G00 Z5
G90
(Conn4)
X3.15 Y-13.6 S7000 M03
Z2
G01 Z-2 
G02 X3.15 Y-14.1 I0 J-0.25 
X1.15 Y-12.1 I0 J2 
X5.15 Y-12.1 I2 J0 
X3.15 Y-14.1 I-2 J0 
X3.15 Y-13.6 I0 J0.25 
G01 Z-4 
G02 X3.15 Y-14.1 I0 J-0.25 
X1.15 Y-12.1 I0 J2 
X5.15 Y-12.1 I2 J0 
X3.15 Y-14.1 I-2 J0 
X3.15 Y-13.6 I0 J0.25 
G00 Z5
G90
(Conn3)
X-6.85 Y-10.6 S7000 M03
Z2
G01 Z-2 
G02 X-6.85 Y-10.1 I0 J0.25 
X-4.85 Y-12.1 I0 J-2 
X-8.85 Y-12.1 I-2 J0 
X-6.85 Y-10.1 I2 J0 
X-6.85 Y-10.6 I0 J-0.25 
G01 Z-4 
G02 X-6.85 Y-10.1 I0 J0.25 
X-4.85 Y-12.1 I0 J-2 
X-8.85 Y-12.1 I-2 J0 
X-6.85 Y-10.1 I2 J0 
X-6.85 Y-10.6 I0 J-0.25 
G00 Z5
G90
(Conn2)
X-33.15 Y-13.6 S7000 M03
Z2
G01 Z-2 
G02 X-33.15 Y-14.1 I0 J-0.25 
X-35.15 Y-12.1 I0 J2 
X-31.15 Y-12.1 I2 J0 
X-33.15 Y-14.1 I-2 J0 
X-33.15 Y-13.6 I0 J0.25 
G01 Z-4 
G02 X-33.15 Y-14.1 I0 J-0.25 
X-35.15 Y-12.1 I0 J2 
X-31.15 Y-12.1 I2 J0 
X-33.15 Y-14.1 I-2 J0 
X-33.15 Y-13.6 I0 J0.25 
G00 Z5
G90
(Conn1)
X-43.15 Y-13.6 S7000 M03
Z2
G01 Z-2 
G02 X-43.15 Y-14.1 I0 J-0.25 
X-45.15 Y-12.1 I0 J2 
X-41.15 Y-12.1 I2 J0 
X-43.15 Y-14.1 I-2 J0 
X-43.15 Y-13.6 I0 J0.25 
G01 Z-4 
G02 X-43.15 Y-14.1 I0 J-0.25 
X-45.15 Y-12.1 I0 J2 
X-41.15 Y-12.1 I2 J0 
X-43.15 Y-14.1 I-2 J0 
X-43.15 Y-13.6 I0 J0.25 
G00 Z5
T0 M06 M02
