(Created with emc2b post processor 2023/11/12 16:15)
(tool change to 2 mm Taschen Fraeser)
T1 M06 G43
G17 G90 G21
(Zeichnung 3)
G00 X-15 Y-12.1 S7000 M03
Z2
G01 Z-1.75 F50
G02 X-15 Y-12.6 I0 J-0.25 
X-15.5 Y-12.1 I0 J0.5 
X-14.5 Y-12.1 I0.5 J0 
X-15 Y-12.6 I-0.5 J0 
X-15 Y-12.1 I0 J0.25 
G01 Z-3.5 
G02 X-15 Y-12.6 I0 J-0.25 
X-15.5 Y-12.1 I0 J0.5 
X-14.5 Y-12.1 I0.5 J0 
X-15 Y-12.6 I-0.5 J0 
X-15 Y-12.1 I0 J0.25 
G00 Z5
G90
(Zeichnung 4)
X-5 Y-12.1 S7000 M03
Z2
G01 Z-1.75 
G02 X-5 Y-12.6 I0 J-0.25 
X-5.5 Y-12.1 I0 J0.5 
X-4.5 Y-12.1 I0.5 J0 
X-5 Y-12.6 I-0.5 J0 
X-5 Y-12.1 I0 J0.25 
G01 Z-3.5 
G02 X-5 Y-12.6 I0 J-0.25 
X-5.5 Y-12.1 I0 J0.5 
X-4.5 Y-12.1 I0.5 J0 
X-5 Y-12.6 I-0.5 J0 
X-5 Y-12.1 I0 J0.25 
G00 Z5
G90
(Zeichnung 5)
X5 Y-12.1 S7000 M03
Z2
G01 Z-1.75 
G02 X5 Y-12.6 I0 J-0.25 
X4.5 Y-12.1 I0 J0.5 
X5.5 Y-12.1 I0.5 J0 
X5 Y-12.6 I-0.5 J0 
X5 Y-12.1 I0 J0.25 
G01 Z-3.5 
G02 X5 Y-12.6 I0 J-0.25 
X4.5 Y-12.1 I0 J0.5 
X5.5 Y-12.1 I0.5 J0 
X5 Y-12.6 I-0.5 J0 
X5 Y-12.1 I0 J0.25 
G00 Z5
G90
(Zeichnung 6)
X15 Y-12.1 S7000 M03
Z2
G01 Z-1.75 
G02 X15 Y-12.6 I0 J-0.25 
X14.5 Y-12.1 I0 J0.5 
X15.5 Y-12.1 I0.5 J0 
X15 Y-12.6 I-0.5 J0 
X15 Y-12.1 I0 J0.25 
G01 Z-3.5 
G02 X15 Y-12.6 I0 J-0.25 
X14.5 Y-12.1 I0 J0.5 
X15.5 Y-12.1 I0.5 J0 
X15 Y-12.6 I-0.5 J0 
X15 Y-12.1 I0 J0.25 
G00 Z5
G90
(Zeichnung 2)
X0 Y-22.1 S7000 M03
Z2
G01 Z-1.75 
G02 X0 Y-21.1 I0 J0.5 
G01 X32.45 Y-21.1 
G03 X33.45 Y-20.1 I0 J1 
G01 X33.45 Y20.1 
G03 X32.45 Y21.1 I-1 J0 
G01 X-32.45 Y21.1 
G03 X-33.45 Y20.1 I0 J-1 
G01 X-33.45 Y-20.1 
G03 X-32.45 Y-21.1 I1 J0 
G01 X0 Y-21.1 
G02 X0 Y-22.1 I0 J-0.5 
G01 Z-3.5 
G02 X0 Y-21.1 I0 J0.5 
G01 X32.45 Y-21.1 
G03 X33.45 Y-20.1 I0 J1 
G01 X33.45 Y20.1 
G03 X32.45 Y21.1 I-1 J0 
G01 X-32.45 Y21.1 
G03 X-33.45 Y20.1 I0 J-1 
G01 X-33.45 Y-20.1 
G03 X-32.45 Y-21.1 I1 J0 
G01 X0 Y-21.1 
G02 X0 Y-22.1 I0 J-0.5 
G00 Z5
T0 M06 M02
